X:1
T:Willow, Willow, Willow
T:Willow, Willow, Willow
T:Copyright © CPDL
T:Copyright © CPDL
T:Copyright © CPDL
T:Copyright © CPDL
Z:Copyright © CPDL
%%score 1 { ( 2 3 4 ) ( 5 6 ) }
L:1/8
Q:1/4=80
M:3/4
K:G
V:1 treble nm="P1"
V:2 treble nm="P2"
V:3 treble 
V:4 treble 
V:5 bass nm="P3"
V:6 bass 
V:1
"^Editor: John Henry Fowler""^(  Revision:   6 - 28 - 2008  )""^Andante." z2 | %1
w: |
"^Words from William Shakespeare's play, \"Othello\".""^From \"English Lyrics\" -  Set 1 -  Number 4" z6 | %2
w: |
"^Dedicated to Parry's wife." z6 |"^Charles Hubert Hastings Parry" z6 | %4
w: ||
"^( 1848 - 1918 )" z2 z2!p! E2 |!<(! ^D2 E2!<)! G2 | ^A2 B2!<(! A!<)!B | =d3!>(! c G2!>)! | %8
w: The|poor soul sat|sigh- ing by a|sy- ca- more|
 A4!p! B2 | (G2 F)!<(!E (G!<)!B) | (e>^d)!>(! e4-!>)! | e2 z2 z2 | z2 z2!p! G2 |!<(! F2 G2 B2!<)! | %14
w: tree, Sing|all _ a green _|wil- * low|_|Her|hand on her|
 ^d2 e3 B |!>(! =d2!>)! c3 G |!<(! ^A4!<)! ^c2 |!>(! f2!>)! B4 |!>(! f2!>)! B4 | z2 f4- | %20
w: bo- som, Her|head on her|knee, Sing|wil- low,|wil- low,|wil-|
 f2 B2 z B |!<(! =c2 d2!<)! e2 | B2 F3 B | c3 d!<)!!<(! e2 | f4 f2 |!f! g2 B4 | G2 e4 | %27
w: * low, The|fresh streams ran|by her, And|mur- mur'd her|moans, Sing|wil- low,|wil- low,|
!>(! g4!>)! B2- | B2 z2 z!p! G | F2 G2 B2 | ^c2!<(! d3!<)! d |!>(! =f3 e!>)! d2 | =F6 | z6 | %34
w: wil- low|_ Her|salt tears fell|from her And|sof- ten'd the|stones;||
 z2 z2!p! D2 | E2 G4 | e2!<)!!<(! G4 |"^rit."!>(! g4!>)! _B2- | B2 !fermata!z2!pp! E2 | %39
w: Sing|wil- low,|wil- low|wil- low,|_ Sing|
 (e2 ^d)e (B^c) | (d2 ^cd) AB | (=c2 Bc) (GA) |!<(! B6-!<)! | B6- | B2 E2 z2 | z6 | z6 | z6 |] %48
w: all _ a green _|wil- * * low must|be _ _ my _|gar-||* land.||||
V:2
!p! g2 | (^d2 e2) z2 | (^A2 B2) z2 | (^D2 E2) z2 | (^D2 E2) z2 | [G,B,]2 z2 [EG]2 | x4 [EG]2 | %7
 x4 [EG]2 | x4 [FB]2 | x4 [EG]2 | x4 !>![Ee]2 |!<(! [GB]2 [FA][EG]!<)! Be | ([Gcg]>[Ff]) [Gg]2 z2 | %13
!<(! x4!<)! [EG]2 | x4 [EG]2 | x4 [EG]2 | x4 ([^A,^C=A]G) | x2 z!>(! (F !>!A!>)!G) | %18
 x2 z!>(! (F !>!A!>)!G) | z2 (3z z F !>!=AG | [^FA]2 z2 z2 | %21
 [EG]/[FA]/[EG]/[FA]/ [EG]/[FA]/[EG]/[FA]/ [EG]/[FA]/[EG]/[FA]/ | B B2!<(! B2!<)!!>(! B!>)! | %23
 [EG]/[FA]/[EG]/[FA]/ [EG]/[FA]/[EG]/[FA]/ [EG]/[FA]/[EG]/[FA]/ | B B2!<(! B2!<)! B | %25
 [B,^DG]4 [DG]2 | [G,EG]4 E2 | (B2!<(! A!<)!G Bd) | (g>a g2) z2 | [Bd] [Bd]2 [Bd]2 [GBd] | %30
 [DGB] [DGB]2 [DGB]2 [DGB] | [=FB] [FB]2 [FB]2 [FB] |!>(! (=f3 e!>)! d2) | (=F6 | (F3) E D2) | %35
 [CE]2 z2 c2 | x4 [EG]2 | z4 [EA]G | e2 !fermata!z2 z2 | [E=Be]2 z2 [EB]2 | [DFd]2 z2 [DA]2 | %41
 [CEc]2 z2 [CG]2 |!<(! z2!<)! [B,,E,B,]4 | B,2 ^A,2 [F,=A,^D-]2 |"^dim." D2!>(! E2!>)! z2 | %45
 (^F2 G2) z2 |"^dim."!>(!!>(! (^A2!>)!!>)! B2) z2 | [ge']6 |] %48
V:3
 x2 | [GB]4 x2 | [EG]4 x2 | [G,C]4 x2 | [F,C]4 x2 | x4 !>!CB, | x4 !>!CB, | x4 DC | x4 E^D | %9
 x4 CB, | x4 x x | x4 G2 | x6 | x4 !>!CB, | x4 !>!CB, | x4 DC | x6 | x4 [B,D]2 | x4 D2 | %19
 x4 !>![^A,E]2 | x6 | x6 | ^D/E/D/E/ F/G/F/G/ A/G/G/F/ | x6 | ^D/E/D/E/ F/G/F/G/ A/G/A/F/ | %25
 x4 (CB,) | x4 (DC) | x6 | z [Bd]2 [Bd]2 [Bd] | x6 | x6 | x6 | [=FB] [FB]2 [FB]2 [FB] | %33
 (=F3 E D2) | C C2 C G,G, | x4 AG | x4 DC | x6 | x6 | x6 | x6 | x6 | x6 | [E,^C]4 x2 | [G,B,]4 x2 | %45
 z [B,E]2 x x2 | z [EG]2 x x2 | x6 |] %48
V:4
 x2 | x6 | x6 | x6 | x6 | x6 | x6 | x6 | x6 | x6 | x6 | x6 | x6 | x6 | x6 | x6 | x6 | x6 | x6 | %19
 x6 | x6 | x6 | x6 | x6 | x6 | x6 | x6 | x6 | x6 | x6 | x6 | x6 | x6 | B, B,2 B,2 B, | x6 | x6 | %36
 x6 | x6 | x6 | x6 | x6 | x6 | x6 | x6 | x6 | x6 | x6 | x6 |] %48
V:5
 z2 | z (B,,!<(! E,G,!<)!!>(!C!>)!B,) | z!<(! (G,, (3B,,E,!<)!!>(!G, C!>)!B,) | %3
 z (C,!<(! E,G,!<)!!>(!=D!>)!C) | z (A,,!<(! E,F,!<)!!>(!=D!>)!C) | z (E,, (3B,,E,G, x2) | %6
 z (E,, (3B,,E,G, x2) | z (E,, (3B,,E,G, x2) | z (D,, (3B,,E,G, x2) | z (E,, (3B,,E,G, x2) | %10
 z ([C,,G,,] (3C,E,G, D)C | z!<(! (E,, (3B,,E,G, C!<)!B,) |!f! z ([A,,,A,,]!>(! (3E,G,B, D)!>)!C | %13
!p! z (E,, (3B,,E,G, x2) | z (E,, (3B,,E,G, x2) | z (E,, (3C,E,G, x2) | %16
!<(! z (E,, (3^C,E,G,!<)! x2) | z (D,, (3B,,D,!>(!F,!>)! x2) | z ([B,,,B,,] (3D,F,!>(!B,)!>)! x2 | %19
 (F,,,F,, (3^C,F,D) z2 | z (E,, (3F,,B,,F,) B,2- |!p! B,G,B,,G, CE, | %22
 F,/G,/F,/G,/ A,/!<(!B,/!<(!A,/B,/!<)!!>(! C/!<)!!>(!B,/B,/!>)!A,/!>)! | G,E, B,,G, CG, | %24
 F,/G,/F,/!<(!G,/"^cresc." A,/B,/A,/B,/!<)! C/B,/C/A,/ |!f! z ([B,,,B,,] ^D,G,) z2 | %26
 z ([C,,G,,] (3C,E,G,) x2 |!mf! z!<(! (G,, (3D,G,!<)!B,) ED | z!>(! (G,, (3D,G,!>)!B,!p! ED) | z6 | %30
 z6 | [G,D] [G,D]2 [G,D]2 [G,D] |!>(! [D,G,B,] [D,G,B,]2 [D,G,B,]2!>)! [D,G,B,] | %33
 [G,,D,] [G,,D,]2 [G,,D,]2 [G,,D,] | [A,,D,] [A,,D,]2 [A,,D,] [B,,=F,][B,,F,] | z (C, (3G,CE x2) | %36
!<(! z (G,, (3C,E,!<)!G, x2) |"^rit." z ([C,,G,,] (3C,E,C x2) | z6 |!p! [G,=B,]2 z2 [E,G,]2 | %40
 [B,,F,]2 z2 [D,=F,]2 | [A,,E,]2 z2 [C,E,]2 |!<(! z2!<)! [G,,,G,,]4 | [F,,,F,,]4 [B,,,B,,]2 | %44
 z (E,, (3B,,!>(!E,G,) !>!=C!>)!B, | z (E,, (3B,,E,G,) !>!CB, | z (E,, (3B,,E,G,) !>!CB, | [EB]6 |] %48
V:6
 x2 | x6 | x6 | x6 | x6 | x E,,2 x x2 | x E,,2 x x2 | x E,,2 x x2 | x3 x x2 | x6 | x6 | x6 | x6 | %13
 x E,,2 x x2 | x E,,2 x x2 | x E,,2 x x2 | x E,,2 x x2 | x D,,2 x x2 | x6 | F,,,2 x2 x2 | %20
 x E,,2 x x2 | x6 | B,,2 x2 x2 | x6 | B,,2 x2 x2 | x6 | x6 | x G,,2 x x2 | x6 | x6 | x6 | x6 | x6 | %33
 x6 | x6 | x6 | x6 | x6 | x6 | x6 | x6 | x6 | x6 | x6 | x6 | x6 | x6 | x6 |] %48

